T: Tyrone March, The
M: 4/4
L: 1/8
K: Amix
e3 f e3 A | Bc d2 e4 | d3 e d2 G2 | B2 A2 Bcdf |e2 ef e2 A2 | BcdB e2 af | g3 e d2 cd |1 e2 A2- A2 :|[M:4/4] e2 ed e2 ed | [M:3/4] e2 f2 A2 | a2 g2 f2 | [M:4/4] e2 ed e2 ed | [M:3/4] e2 f2- f2 | a2 g2 f2 |[M:4/4] e2 ed efed | e2 f2 A4 | e3 f e3 d |1 c2 A2- A2 :|
</html>
